X:11
T:Catharsis (use C whistle 1 note high)
M:4/4
L:1/8
R:reel
K:Gmin
DGGA BGAF|DGGF DFCF|DGGA BGAF|DFDC B,CA,B,|
DGGA BGAF|DFGA B/A/G Ac|dcBc BAGF|1 DGGF G2 G2:|2 DGGF GABc||
dGGc GGBG|GAGG GABc|dFFc FFBF|FAFF GABc|
dEEc EEBE|EAEE GABc|dcBc BAGF|1 DGGF GABc:|2 DCB,C B,A,B,A,||
